src/lib/packages/icons/src/assets/filled/github.svg

<svg width="24" height="24" viewBox="0 0 24 24" fill="none" xmlns="http://www.w3.org/2000/svg">
<path fill-rule="evenodd" clip-rule="evenodd" d="M21 12C21 15.99 18.4 19.36 14.81 20.55C14.38 20.62 14.23 20.35 14.23 20.12C14.23 19.82 14.24 18.85 14.24 17.65C14.24 16.81 13.95 16.26 13.63 15.98C15.63 15.76 17.74 15 17.74 11.54C17.74 10.56 17.39 9.76 16.81 9.13C16.91 8.9 17.22 7.97999 16.73 6.73999C16.73 6.73999 15.97 6.50001 14.25 7.67001C13.53 7.47001 12.76 7.36999 12 7.35999C11.23 7.36999 10.46 7.47001 9.75 7.67001C8.03 6.50001 7.27002 6.73999 7.27002 6.73999C6.78002 7.97999 7.08999 8.9 7.17999 9.13C6.60999 9.76 6.26001 10.56 6.26001 11.54C6.26001 14.99 8.35999 15.76 10.36 15.99C10.1 16.21 9.86998 16.61 9.78998 17.19C9.26998 17.42 7.96998 17.82 7.16998 16.44C7.16998 16.44 6.68998 15.58 5.78998 15.52C5.78998 15.52 4.90998 15.51 5.72998 16.06C5.72998 16.06 6.31998 16.34 6.72998 17.38C6.72998 17.38 7.25001 18.99 9.76001 18.44C9.76001 19.19 9.77002 19.9 9.77002 20.12C9.77002 20.34 9.61 20.62 9.19 20.55C5.6 19.37 3 15.99 3 12C3 7.03 7.03 3 12 3C16.97 3 21 7.03 21 12Z" fill="currentColor"/>
</svg>

<svg xmlns="http://www.w3.org/2000/svg" width="24" height="24" fill="none"><path fill="currentColor" fill-rule="evenodd" d="M21 12c0 3.99-2.6 7.36-6.19 8.55-.43.07-.58-.2-.58-.43 0-.3.01-1.27.01-2.47 0-.84-.29-1.39-.61-1.67 2-.22 4.11-.98 4.11-4.44 0-.98-.35-1.78-.93-2.41.1-.23.41-1.15-.08-2.39 0 0-.76-.24-2.48.93-.72-.2-1.49-.3-2.25-.31-.77.01-1.54.11-2.25.31-1.72-1.17-2.48-.93-2.48-.93-.49 1.24-.18 2.16-.09 2.39-.57.63-.92 1.43-.92 2.41 0 3.45 2.1 4.22 4.1 4.45-.26.22-.49.62-.57 1.2-.52.23-1.82.63-2.62-.75 0 0-.48-.86-1.38-.92 0 0-.88-.01-.06.54 0 0 .59.28 1 1.32 0 0 .52 1.61 3.03 1.06 0 .75.01 1.46.01 1.68 0 .22-.16.5-.58.43C5.6 19.37 3 15.99 3 12a9 9 0 0 1 18 0Z" clip-rule="evenodd"/></svg>
